X: 216
T: A Gunne Dubh
R: strathspey
M: 4/4
K: Adorian
B/|:e/f/e d>B A>AA>B|G>GG>B d>BG>B|e/f/e d>B A>AA>g|a>eg>B A>AA>B:|
|:g>ag>e d>eg>a|g>ed>e a>ee>f|g>ag>e d>eg>e|a>eg>B A>AA>B:|

